icon/ir/ruler-combine.svg

<svg stroke-width="1.5" viewBox="0 0 24 24" fill="none" xmlns="http://www.w3.org/2000/svg" height="1em" width="1em">
  <path d="M2 21.4V2.6C2 2.26863 2.26863 2 2.6 2H21.4C21.7314 2 22 2.26863 22 2.6V9.4C22 9.73137 21.7314 10 21.4 10H10.6C10.2686 10 10 10.2686 10 10.6V21.4C10 21.7314 9.73137 22 9.4 22H2.6C2.26863 22 2 21.7314 2 21.4Z" stroke="currentColor" stroke-linecap="round" stroke-linejoin="round"/>
  <path d="M16 10V7" stroke="currentColor" stroke-linecap="round" stroke-linejoin="round"/>
  <path d="M10 10V7" stroke="currentColor" stroke-linecap="round" stroke-linejoin="round"/>
  <path d="M10 16H7" stroke="currentColor" stroke-linecap="round" stroke-linejoin="round"/>
  <path d="M10 10H7" stroke="currentColor" stroke-linecap="round" stroke-linejoin="round"/>
</svg>

<svg width="24" height="24" stroke-width="1.5" fill="none" xmlns="http://www.w3.org/2000/svg"><path d="M2 21.4V2.6a.6.6 0 0 1 .6-.6h18.8a.6.6 0 0 1 .6.6v6.8a.6.6 0 0 1-.6.6H10.6a.6.6 0 0 0-.6.6v10.8a.6.6 0 0 1-.6.6H2.6a.6.6 0 0 1-.6-.6ZM16 10V7M10 10V7M10 16H7M10 10H7" stroke="currentColor" stroke-linecap="round" stroke-linejoin="round"/></svg>
